img/icons/aboutus_goals-icon_4.svg

<svg width="56" height="62" viewBox="0 0 56 62" fill="none" xmlns="http://www.w3.org/2000/svg">
<path d="M28.4172 29.2764L29.4526 31.0651C31.6825 29.7744 33.0682 27.374 33.0682 24.8C33.0682 20.8113 29.8225 17.5667 25.8349 17.5667C21.8473 17.5667 18.6016 20.8113 18.6016 24.8C18.6016 27.2283 19.8106 29.482 21.8349 30.8274L22.9788 29.1069C21.5321 28.1449 20.6682 26.535 20.6682 24.8C20.6682 21.9511 22.986 19.6333 25.8349 19.6333C28.6838 19.6333 31.0016 21.9511 31.0016 24.8C31.0016 26.6383 30.0116 28.3536 28.4172 29.2764Z" fill="url(#paint0_linear)"/>
<path d="M12.3984 24.8003C12.3984 29.3097 14.6428 33.4947 18.4031 35.9944L19.547 34.2739C16.3654 32.1576 14.4651 28.6164 14.4651 24.8003C14.4651 18.5331 19.5646 13.4336 25.8318 13.4336C32.0989 13.4336 37.1984 18.5331 37.1984 24.8003C37.1984 28.6164 35.2981 32.1576 32.1165 34.2728L33.2604 35.9944C37.0207 33.4947 39.2651 29.3097 39.2651 24.8003C39.2651 17.3933 33.2387 11.3669 25.8318 11.3669C18.4248 11.3669 12.3984 17.3933 12.3984 24.8003Z" fill="url(#paint1_linear)"/>
<path d="M50.6318 25.8334C50.6318 25.11 50.5998 24.3836 50.5368 23.6758L48.4784 23.8587C48.5362 24.5055 48.5652 25.17 48.5652 25.8334C48.5652 33.8045 44.5 41.0585 37.6914 45.2363L38.7733 46.9981C46.1988 42.4411 50.6318 34.5299 50.6318 25.8334Z" fill="url(#paint2_linear)"/>
<path d="M25.8333 3.09987C30.4275 3.09987 34.8533 4.46697 38.6311 7.05237L39.7978 5.34737C35.6748 2.5243 30.847 1.0332 25.8333 1.0332C22.8687 1.0332 19.966 1.5509 17.207 2.5739L17.9252 4.5114C20.4538 3.57417 23.1146 3.09987 25.8333 3.09987Z" fill="url(#paint3_linear)"/>
<path d="M2.57689 17.2073C1.55389 19.9632 1.03516 22.8658 1.03516 25.8335C1.03516 34.5321 5.46919 42.4433 12.8958 46.9941L13.9756 45.2323C7.16696 41.0597 3.10182 33.8078 3.10182 25.8335C3.10182 23.1117 3.57716 20.4519 4.51439 17.9265L2.57689 17.2073Z" fill="url(#paint4_linear)"/>
<path d="M31.0013 41.3333C31.0013 38.8337 29.226 36.7495 26.868 36.271V27.9C28.0697 27.4732 28.9346 26.3376 28.9346 24.9901C28.9346 23.2779 27.5469 21.8901 25.8346 21.8901C24.1224 21.8901 22.7346 23.2779 22.7346 24.9901C22.7346 26.3376 23.5995 27.4732 24.8013 27.9V36.271C22.4432 36.7495 20.668 38.8337 20.668 41.3333C20.668 44.1864 22.9816 46.5 25.8346 46.5C28.6877 46.5 31.0013 44.1864 31.0013 41.3333Z" fill="url(#paint5_linear)"/>
<path d="M16.5352 50.6333V62H35.1352V50.6333C35.1352 48.3507 33.4694 46.5 31.4152 46.5H25.8352H20.2552C18.2009 46.5 16.5352 48.3507 16.5352 50.6333Z" fill="url(#paint6_linear)"/>
<path d="M55.799 13.4329C55.799 8.86766 52.0976 5.16626 47.5323 5.16626C42.967 5.16626 39.2656 8.86766 39.2656 13.4329C39.2656 17.9982 42.967 21.6996 47.5323 21.6996C52.0976 21.6996 55.799 17.9982 55.799 13.4329ZM47.5323 20.6663C45.5121 20.6663 43.6883 19.8365 42.376 18.5014C42.4287 16.2653 44.2494 14.4663 46.499 14.4663H47.5323C45.8201 14.4663 44.4323 13.0785 44.4323 11.3663C44.4323 9.65403 45.8201 8.26626 47.5323 8.26626C49.2445 8.26626 50.6323 9.65403 50.6323 11.3663C50.6323 13.0785 49.2445 14.4663 47.5323 14.4663H48.5656C50.8152 14.4663 52.6359 16.2653 52.6886 18.5014C51.3763 19.8365 49.5525 20.6663 47.5323 20.6663Z" fill="url(#paint7_linear)"/>
<path d="M8.26667 16.5333C12.8319 16.5333 16.5333 12.8319 16.5333 8.26667C16.5333 3.7014 12.8319 0 8.26667 0C3.7014 0 0 3.7014 0 8.26667C0 12.8319 3.7014 16.5333 8.26667 16.5333ZM7.23333 9.3H8.26667C6.55443 9.3 5.16667 7.91223 5.16667 6.2C5.16667 4.48777 6.55443 3.1 8.26667 3.1C9.9789 3.1 11.3667 4.48777 11.3667 6.2C11.3667 7.91223 9.9789 9.3 8.26667 9.3H9.3C11.5496 9.3 13.3703 11.099 13.423 13.3352C12.1107 14.6702 10.2868 15.5 8.26667 15.5C6.2465 15.5 4.42267 14.6702 3.11033 13.3352C3.16303 11.099 4.98377 9.3 7.23333 9.3Z" fill="url(#paint8_linear)"/>
<defs>
<linearGradient id="paint0_linear" x1="33.0682" y1="24.3159" x2="18.6016" y2="24.3159" gradientUnits="userSpaceOnUse">
<stop stop-color="#4CBA85"/>
<stop offset="1" stop-color="#2569AC"/>
</linearGradient>
<linearGradient id="paint1_linear" x1="39.2651" y1="23.6807" x2="12.3984" y2="23.6807" gradientUnits="userSpaceOnUse">
<stop stop-color="#4CBA85"/>
<stop offset="1" stop-color="#2569AC"/>
</linearGradient>
<linearGradient id="paint2_linear" x1="50.6318" y1="35.3369" x2="37.6914" y2="35.3369" gradientUnits="userSpaceOnUse">
<stop stop-color="#4CBA85"/>
<stop offset="1" stop-color="#2569AC"/>
</linearGradient>
<linearGradient id="paint3_linear" x1="39.7978" y1="4.04278" x2="17.207" y2="4.04278" gradientUnits="userSpaceOnUse">
<stop stop-color="#4CBA85"/>
<stop offset="1" stop-color="#2569AC"/>
</linearGradient>
<linearGradient id="paint4_linear" x1="13.9756" y1="32.1007" x2="1.03516" y2="32.1007" gradientUnits="userSpaceOnUse">
<stop stop-color="#4CBA85"/>
<stop offset="1" stop-color="#2569AC"/>
</linearGradient>
<linearGradient id="paint5_linear" x1="31.0013" y1="34.1951" x2="20.668" y2="34.1951" gradientUnits="userSpaceOnUse">
<stop stop-color="#4CBA85"/>
<stop offset="1" stop-color="#2569AC"/>
</linearGradient>
<linearGradient id="paint6_linear" x1="35.1352" y1="54.25" x2="16.5352" y2="54.25" gradientUnits="userSpaceOnUse">
<stop stop-color="#4CBA85"/>
<stop offset="1" stop-color="#2569AC"/>
</linearGradient>
<linearGradient id="paint7_linear" x1="55.799" y1="13.4329" x2="39.2656" y2="13.4329" gradientUnits="userSpaceOnUse">
<stop stop-color="#4CBA85"/>
<stop offset="1" stop-color="#2569AC"/>
</linearGradient>
<linearGradient id="paint8_linear" x1="16.5333" y1="8.26666" x2="1.13581e-08" y2="8.26666" gradientUnits="userSpaceOnUse">
<stop stop-color="#4CBA85"/>
<stop offset="1" stop-color="#2569AC"/>
</linearGradient>
</defs>
</svg>

<svg width="56" height="62" fill="none" xmlns="http://www.w3.org/2000/svg"><path d="M28.417 29.276l1.036 1.79a7.262 7.262 0 003.615-6.266c0-3.989-3.245-7.233-7.233-7.233-3.988 0-7.233 3.244-7.233 7.233a7.223 7.223 0 003.233 6.027l1.144-1.72a5.162 5.162 0 01-2.31-4.307 5.173 5.173 0 015.166-5.167 5.173 5.173 0 015.167 5.167c0 1.838-.99 3.554-2.585 4.476z" fill="url(#paint0_linear)"/><path d="M12.398 24.8c0 4.51 2.245 8.695 6.005 11.194l1.144-1.72a11.356 11.356 0 01-5.082-9.474c0-6.267 5.1-11.366 11.367-11.366 6.267 0 11.366 5.1 11.366 11.366 0 3.816-1.9 7.358-5.081 9.473l1.143 1.721A13.415 13.415 0 0039.265 24.8c0-7.407-6.026-13.433-13.433-13.433S12.398 17.393 12.398 24.8z" fill="url(#paint1_linear)"/><path d="M50.632 25.833c0-.723-.032-1.45-.095-2.157l-2.059.183c.058.646.087 1.311.087 1.974 0 7.971-4.065 15.226-10.874 19.403l1.082 1.762C46.2 42.441 50.632 34.53 50.632 25.833z" fill="url(#paint2_linear)"/><path d="M25.833 3.1c4.595 0 9.02 1.367 12.798 3.952l1.167-1.705a24.61 24.61 0 00-13.965-4.314 24.73 24.73 0 00-8.626 1.54l.718 1.938A22.678 22.678 0 0125.833 3.1z" fill="url(#paint3_linear)"/><path d="M2.577 17.207a24.706 24.706 0 00-1.542 8.627c0 8.698 4.434 16.61 11.86 21.16l1.08-1.762C7.168 41.06 3.103 33.808 3.103 25.834c0-2.722.475-5.382 1.412-7.907l-1.937-.72z" fill="url(#paint4_linear)"/><path d="M31.001 41.333c0-2.5-1.775-4.584-4.133-5.062V27.9a3.09 3.09 0 002.067-2.91 3.1 3.1 0 10-6.2 0A3.09 3.09 0 0024.8 27.9v8.371a5.167 5.167 0 106.2 5.062z" fill="url(#paint5_linear)"/><path d="M16.535 50.633V62h18.6V50.633c0-2.282-1.666-4.133-3.72-4.133h-11.16c-2.054 0-3.72 1.85-3.72 4.133z" fill="url(#paint6_linear)"/><path d="M55.799 13.433a8.267 8.267 0 10-16.534 0 8.267 8.267 0 0016.534 0zm-8.267 7.233c-2.02 0-3.844-.83-5.156-2.165a4.127 4.127 0 014.123-4.035h1.033a3.1 3.1 0 110-6.2 3.1 3.1 0 010 6.2h1.034c2.25 0 4.07 1.8 4.123 4.035a7.207 7.207 0 01-5.157 2.165z" fill="url(#paint7_linear)"/><path d="M8.267 16.533A8.267 8.267 0 108.266 0a8.267 8.267 0 000 16.534zM7.233 9.3h1.034a3.1 3.1 0 110-6.2 3.1 3.1 0 010 6.2H9.3c2.25 0 4.07 1.799 4.123 4.035A7.207 7.207 0 018.267 15.5a7.21 7.21 0 01-5.157-2.165A4.127 4.127 0 017.233 9.3z" fill="url(#paint8_linear)"/><defs><linearGradient id="paint0_linear" x1="33.068" y1="24.316" x2="18.602" y2="24.316" gradientUnits="userSpaceOnUse"><stop stop-color="#4CBA85"/><stop offset="1" stop-color="#2569AC"/></linearGradient><linearGradient id="paint1_linear" x1="39.265" y1="23.681" x2="12.398" y2="23.681" gradientUnits="userSpaceOnUse"><stop stop-color="#4CBA85"/><stop offset="1" stop-color="#2569AC"/></linearGradient><linearGradient id="paint2_linear" x1="50.632" y1="35.337" x2="37.691" y2="35.337" gradientUnits="userSpaceOnUse"><stop stop-color="#4CBA85"/><stop offset="1" stop-color="#2569AC"/></linearGradient><linearGradient id="paint3_linear" x1="39.798" y1="4.043" x2="17.207" y2="4.043" gradientUnits="userSpaceOnUse"><stop stop-color="#4CBA85"/><stop offset="1" stop-color="#2569AC"/></linearGradient><linearGradient id="paint4_linear" x1="13.976" y1="32.101" x2="1.035" y2="32.101" gradientUnits="userSpaceOnUse"><stop stop-color="#4CBA85"/><stop offset="1" stop-color="#2569AC"/></linearGradient><linearGradient id="paint5_linear" x1="31.001" y1="34.195" x2="20.668" y2="34.195" gradientUnits="userSpaceOnUse"><stop stop-color="#4CBA85"/><stop offset="1" stop-color="#2569AC"/></linearGradient><linearGradient id="paint6_linear" x1="35.135" y1="54.25" x2="16.535" y2="54.25" gradientUnits="userSpaceOnUse"><stop stop-color="#4CBA85"/><stop offset="1" stop-color="#2569AC"/></linearGradient><linearGradient id="paint7_linear" x1="55.799" y1="13.433" x2="39.266" y2="13.433" gradientUnits="userSpaceOnUse"><stop stop-color="#4CBA85"/><stop offset="1" stop-color="#2569AC"/></linearGradient><linearGradient id="paint8_linear" x1="16.533" y1="8.267" x2="0" y2="8.267" gradientUnits="userSpaceOnUse"><stop stop-color="#4CBA85"/><stop offset="1" stop-color="#2569AC"/></linearGradient></defs></svg>
